X:167
M:4/4
L:1/8
K:D
EBBA c2BA | B/c/d AB defg | a/g/f g/f/e dBAF | DEFD E2 :| 
eBB/A/B efgf | eBB/A/B defg | a/g/f g/f/e dBAF | DEFD E2 :|| 

